Newaita-dark/actions/32/edit-table-insert-row-below.svg

<svg height="32" viewBox="0 0 32 32" width="32" xmlns="http://www.w3.org/2000/svg"><g fill="#e0e0e0"><path d="m11.246094 4.21875h1.324218v15.214844h-1.324218zm0 0"/><path d="m19.183594 3.558594h1.324218v15.875h-1.324218zm0 0"/><path d="m2.644531 26.710938c0 1.464843 1.183594 2.644531 2.648438 2.644531v-22.492188c0-.730469.589843-1.320312 1.320312-1.320312h18.523438c.734375 0 1.324219.589843 1.324219 1.320312v12.570313h2.644531v-13.890625c0-1.464844-1.179688-2.648438-2.644531-2.648438h-21.167969c-1.464844 0-2.648438 1.183594-2.648438 2.648438zm0 0"/><path d="m27.121094 11.496094v1.324218h-23.152344v-1.324218zm0 0"/></g><path d="m5.265625 26.738281v2.59375c0 .011719.011719.023438.027344.023438h10.53125c.015625 0 .027343-.011719.027343-.023438v-2.59375c0-.015625-.011718-.027343-.027343-.027343h-10.53125c-.015625 0-.027344.011718-.027344.027343zm0 0" fill="#f44336"/><path d="m5.292969 19.449219v1.320312h10.558593v-1.320312zm0 0" fill="#f44336"/><path d="m11.367188 19.777344 1.277343-.34375 2.398438 8.945312-1.277344.34375zm0 0" fill="#f44336"/><path d="m6.632812 19.777344 1.28125-.34375 2.394532 8.945312-1.277344.34375zm0 0" fill="#f44336"/><path d="m20.175781 24.726562c0-.367187.296875-.660156.664063-.660156h5.289062c.367188 0 .664063.292969.664063.660156 0 .363282-.296875.660157-.664063.660157h-5.289062c-.367188 0-.664063-.296875-.664063-.660157zm0 0" fill="#e0e0e0"/><path d="m23.484375 21.417969c.363281 0 .660156.296875.660156.664062v5.289063c0 .367187-.296875.664062-.660156.664062-.367187 0-.660156-.296875-.660156-.664062v-5.289063c0-.367187.292969-.664062.660156-.664062zm0 0" fill="#e0e0e0"/></svg>

<svg xmlns="http://www.w3.org/2000/svg" xmlns:xlink="http://www.w3.org/1999/xlink" width="32px" height="32px" viewBox="0 0 32 32" version="1.1">
<g id="surface1">
     <defs>
  <style id="current-color-scheme" type="text/css">
   .ColorScheme-Text { color:#eeeeee; } .ColorScheme-Highlight { color:#424242; }
  </style>
 </defs>
<path style="fill:currentColor" class="ColorScheme-Text" d="M 11.246094 4.21875 L 12.570312 4.21875 L 12.570312 19.433594 L 11.246094 19.433594 Z M 11.246094 4.21875 "/>
     <defs>
  <style id="current-color-scheme" type="text/css">
   .ColorScheme-Text { color:#eeeeee; } .ColorScheme-Highlight { color:#424242; }
  </style>
 </defs>
<path style="fill:currentColor" class="ColorScheme-Text" d="M 19.183594 3.558594 L 20.507812 3.558594 L 20.507812 19.433594 L 19.183594 19.433594 Z M 19.183594 3.558594 "/>
     <defs>
  <style id="current-color-scheme" type="text/css">
   .ColorScheme-Text { color:#eeeeee; } .ColorScheme-Highlight { color:#424242; }
  </style>
 </defs>
<path style="fill:currentColor" class="ColorScheme-Text" d="M 2.644531 26.710938 C 2.644531 28.175781 3.828125 29.355469 5.292969 29.355469 L 5.292969 6.863281 C 5.292969 6.132812 5.882812 5.542969 6.613281 5.542969 L 25.136719 5.542969 C 25.871094 5.542969 26.460938 6.132812 26.460938 6.863281 L 26.460938 19.433594 L 29.105469 19.433594 L 29.105469 5.542969 C 29.105469 4.078125 27.925781 2.894531 26.460938 2.894531 L 5.292969 2.894531 C 3.828125 2.894531 2.644531 4.078125 2.644531 5.542969 Z M 2.644531 26.710938 "/>
     <defs>
  <style id="current-color-scheme" type="text/css">
   .ColorScheme-Text { color:#eeeeee; } .ColorScheme-Highlight { color:#424242; }
  </style>
 </defs>
<path style="fill:currentColor" class="ColorScheme-Text" d="M 27.121094 11.496094 L 27.121094 12.820312 L 3.96875 12.820312 L 3.96875 11.496094 Z M 27.121094 11.496094 "/>
<path style=" stroke:none;fill-rule:nonzero;fill:rgb(95.686275%,26.274511%,21.176471%);fill-opacity:1;" d="M 5.265625 26.738281 L 5.265625 29.332031 C 5.265625 29.34375 5.277344 29.355469 5.292969 29.355469 L 15.824219 29.355469 C 15.839844 29.355469 15.851562 29.34375 15.851562 29.332031 L 15.851562 26.738281 C 15.851562 26.722656 15.839844 26.710938 15.824219 26.710938 L 5.292969 26.710938 C 5.277344 26.710938 5.265625 26.722656 5.265625 26.738281 Z M 5.265625 26.738281 "/>
<path style=" stroke:none;fill-rule:nonzero;fill:rgb(95.686275%,26.274511%,21.176471%);fill-opacity:1;" d="M 5.292969 19.449219 L 5.292969 20.769531 L 15.851562 20.769531 L 15.851562 19.449219 Z M 5.292969 19.449219 "/>
<path style=" stroke:none;fill-rule:nonzero;fill:rgb(95.686275%,26.274511%,21.176471%);fill-opacity:1;" d="M 11.367188 19.777344 L 12.644531 19.433594 L 15.042969 28.378906 L 13.765625 28.722656 Z M 11.367188 19.777344 "/>
<path style=" stroke:none;fill-rule:nonzero;fill:rgb(95.686275%,26.274511%,21.176471%);fill-opacity:1;" d="M 6.632812 19.777344 L 7.914062 19.433594 L 10.308594 28.378906 L 9.03125 28.722656 Z M 6.632812 19.777344 "/>
     <defs>
  <style id="current-color-scheme" type="text/css">
   .ColorScheme-Text { color:#eeeeee; } .ColorScheme-Highlight { color:#424242; }
  </style>
 </defs>
<path style="fill:currentColor" class="ColorScheme-Text" d="M 20.175781 24.726562 C 20.175781 24.359375 20.472656 24.066406 20.839844 24.066406 L 26.128906 24.066406 C 26.496094 24.066406 26.792969 24.359375 26.792969 24.726562 C 26.792969 25.089844 26.496094 25.386719 26.128906 25.386719 L 20.839844 25.386719 C 20.472656 25.386719 20.175781 25.089844 20.175781 24.726562 Z M 20.175781 24.726562 "/>
     <defs>
  <style id="current-color-scheme" type="text/css">
   .ColorScheme-Text { color:#eeeeee; } .ColorScheme-Highlight { color:#424242; }
  </style>
 </defs>
<path style="fill:currentColor" class="ColorScheme-Text" d="M 23.484375 21.417969 C 23.847656 21.417969 24.144531 21.714844 24.144531 22.082031 L 24.144531 27.371094 C 24.144531 27.738281 23.847656 28.035156 23.484375 28.035156 C 23.117188 28.035156 22.824219 27.738281 22.824219 27.371094 L 22.824219 22.082031 C 22.824219 21.714844 23.117188 21.417969 23.484375 21.417969 Z M 23.484375 21.417969 "/>
</g>
</svg>
